X:1
T:Title
%%score { ( 1 3 4 ) | ( 2 5 6 ) }
L:1/8
Q:1/4=240
M:4/2
K:Eb
V:1 treble nm="Grand Piano"
V:3 treble 
V:4 treble 
V:2 bass 
V:5 bass 
V:6 bass 
V:1
 [B,EG]8 [A,DF]4 [B,DG]4 | [G,CE]12 [G,CE]4 | [B,DF]4 [B,EG]4 [B,DA]4 [B,DB]4 | [B,EG]16 | %4
w: C.~S.~Beatson * *||||
 [B,EB]8 [CEA]4 [B,DB]4 | [B,EG]8 [A,DF]8 | [G,E]4 [B,E]4 [A,CE]4 [_G,=B,E]4 | [F,B,D]16 | %8
w: ||||
 [B,G]8 [A,DF]4 [A,D]4 | [G,CE]8 [EB]8 | z8 [Ad]8[K:bass][K:treble] | c8 B8 | c8 A4 G4 | %13
w: |||||
 [CEG]4 [B,EB]4 [CEA]4 [A,C]4 | z8 [DF]8 | [G,E]16 |] %16
w: |||
V:2
 E,8 B,,4 B,,4 | C,12 C,4 | B,,4 E,4 F,4 B,,4 | E,16 | G,8 F,4 B,,4 | E,8 =B,,8 | %6
 C,4 G,,4 A,,4 =A,,4 | B,,16 | E,8 B,,4 B,,4 | C,8 [B,,G,]8 | [A,,A,]4 [A,,C]4 B,6 [F,D]2 | %11
 z8 E4 z4 | [A,C]8 [F,A,D]4 [E,B,E]4 | C,4 G,,4 A,,4 A,,4 | B,,8 z4 A,4 | E,16 |] %16
V:3
 x16 | x16 | x16 | x16 | x16 | x16 | x16 | x16 | x16 | x16 | %10
 [Ec]4 [Ee]4 z4[K:bass] z2[K:treble] A2 | z4 D4 z4 _D4 | x16 | x16 | [G,B,E]8 B,4 z4 | x16 |] %16
V:4
 x16 | x16 | x16 | x16 | x16 | x16 | x16 | x16 | x16 | x16 | z8 z4[K:bass] B,,4[K:treble] | x16 | %12
 x16 | x16 | x16 | x16 |] %16
V:5
 x16 | x16 | x16 | x16 | x16 | x16 | x16 | x16 | x16 | x16 | z8 B,,4 z4 | C4 z4 G,8 | x16 | x16 | %14
 z8 B,,8 | x16 |] %16
V:6
 x16 | x16 | x16 | x16 | x16 | x16 | x16 | x16 | x16 | x16 | x16 | [E,-A,]8 E,8 | x16 | x16 | x16 | %15
 x16 |] %16

